icons/hamburger-menu.svg

<svg width="22" height="20" viewBox="0 0 22 20" fill="none" xmlns="http://www.w3.org/2000/svg">
<path d="M21.1499 2.46002C21.1499 1.73685 20.5631 1.15002 19.8399 1.15002H2.1599C1.43672 1.15002 0.849903 1.73685 0.849903 2.46002C0.849903 3.1832 1.43672 3.77002 2.1599 3.77002H19.8399C20.5631 3.77002 21.1499 3.1832 21.1499 2.46002ZM21.1499 10C21.1499 9.27685 20.5631 8.69002 19.8399 8.69002H2.1599C1.43672 8.69002 0.849903 9.27685 0.849903 10C0.849903 10.7232 1.43672 11.31 2.1599 11.31H19.8399C20.5631 11.31 21.1499 10.7232 21.1499 10ZM21.1499 17.54C21.1499 16.8168 20.5631 16.23 19.8399 16.23H2.1599C1.43672 16.23 0.849903 16.8168 0.849903 17.54C0.849903 18.2632 1.43672 18.85 2.1599 18.85H19.8399C20.5631 18.85 21.1499 18.2632 21.1499 17.54Z" fill="#5F504D" stroke="white" stroke-width="0.5"/>
</svg>

<svg width="22" height="20" fill="none" xmlns="http://www.w3.org/2000/svg"><path d="M21.15 2.46a1.31 1.31 0 00-1.31-1.31H2.16a1.31 1.31 0 000 2.62h17.68a1.31 1.31 0 001.31-1.31zm0 7.54a1.31 1.31 0 00-1.31-1.31H2.16a1.31 1.31 0 000 2.62h17.68A1.31 1.31 0 0021.15 10zm0 7.54a1.31 1.31 0 00-1.31-1.31H2.16a1.31 1.31 0 000 2.62h17.68a1.31 1.31 0 001.31-1.31z" fill="#878787" stroke="#fff" stroke-width=".5"/></svg>
